!!!COM: Richard Strauss
!!!CNT: Deutscher
!!!TXO: Deutsche 
!!!OTL: Lob des Leidens
!!!OPS: Opus 15
!!!ONM: No. 3
!!!LYR: A.F. von Schack
!!!ENC: Brian Bice
!!!YOR: Lieder, Complete Edition, vol. 1
!!!ODT: 1886/
!!NB: Vocal melody and text only encoded.
**kern	**silbe
*clefG2	*
*k[b-e-a-d-g-]	*
*M4/4	*
=2	=2
4r	.
{4g-	{O
4.g-	schma2ht
8g-	des
=3	=3
8b-	Le-
8a-	-bens
2dd-	Lei-
4b-	-den
=4	=4
2f}	nicht!}
8r	.
{8f	{seht
8f	ihr
8f	die
=5	=5
4b-	Bla2t-
4b-	-ter,
8r	.
4f	wenn
8f	sie
=6	=6
4a-	ster-
4g-}	-ben,}
8r	.
{8g-	{sich
8g-	in
8a-	des
=7	=7
4.b-	Herb-
8b-	-stes
(8dd-	gol-
8cc)	|
(8b-	-de-
8cc)	-nem
=8	=8
2.a-}	Licht}
{4a-	{nicht
=9	=9
4a-	rei-
4g-	-cher,
8r	.
4a-	als
8b-	im
=10	=10
2.f	Fru2h-
4f	-ling
=11	=11
4f	fa2r-
4g-}	-ben?}
2r	.
=13	=13
{4cc-	{Was
8b-	gleicht
8a-	der
[2cc-	Blu2-
=14	=14
8cc-]	|
8cc-	-te
8b-	des
8a-	Ver-
4ee-	-ge-
8g-}	-hens}
{8g-	{im
=15	=15
4g-	Hau-
4f	-che
4g-	des
4a-	Ok-
=16	=16
2.b-	-to-
4an	-ber-
=17	=17
4f	-we-
4b-}	-hens?}
2r	.
=18	=18
2r	.
4r	.
{4B-	{Kry-
=19	=19
2gn	-stall-
4e-	-ner
8e-	als
8gn	die
=20	=20
4.b-	klar-
8gn	-ste
4.dn}	Flut}
{8dn	{er-
=21	=21
4.f	-gla2nzt
8f	des
4f	Au-
4e-	-ges
=22	=22
(8b-	Tra2-
8a-)	|
(8gn	-nen-
8f#)	|
4f#	-quel-
4g}	-le,}
=23	=23
8r	.
{8f	{tief
4.a-	dunk-
8b-	-ler
8cc	flammt
8dd-	die
=24	=24
4.dd-	A-
8b-	-bend-
2g-}	-glut.}
=25	=25
8r	.
{8g-	{als
8a-	hoch
8b-	am
4.cc	Tag
8dd-	die
=26	=26
8.ee-	Son-
16een	-nen-
2een	-hel-
4cc}	-le}
=27	=27
4r	.
{4cc	{und
[2cc	kei-
=28	=28
4cc]	|
4an	-ner
4gn	ku2sst
4f	so
=29	=29
([1ff	hei-
=30	=30
2ff]	|
4een)	|
4e-	-ssen
=31	=31
1b-}	Kuss,}
=32	=32
4r	.
{4f	{als
4.ddn	wer
8dn	fu2r
=33	=33
2.b-	e-
4b-	-wig
=34	=34
(2een	schei-
4.an)	|
8gn	-den
=35	=35
(2gn	muss,
4f#)}	|}
4r	.
=37	=37
4r	.
{4e-	{als
4e-	wer
4e-	fu2r
=38	=38
2dn	e-
4dn	-wig
4r	.
=39	=39
2r	.
([2d-	schei-
=40	=40
2d-]	|
2f)	-den
=41	=41
1f}	muss.}
*-	*-
